**kern	**kern	**dynam
*part1	*part1	*part1
*staff2	*staff1	*
*I"Piano	*	*
*clefF4	*clefG2	*
*k[]	*k[]	*
=1	=1	=1
(4.AA	8r	.
.	4c#X 4e 4a	<
4.GG	8r	.
.	4e 4a 4cc#X	.
=	=	=
4.FF)	8r	[ >
.	4f 4a 4dd	.
4.DD	8r	.
.	4f 4b 4dd	]
=	=	=
2.EE	8r	.
.	[4e 4g#X [4b	.
.	4.e] 4.g# 4.b]	.
=	=	=
(4.DD'	8r	.
.	4e 4g#X 4b	ppp
4.DD')	8r	.
.	4e 4g# 4b	.
=	=	=
4.DD	8r	.
.	4e 4g#X 4b	.
4.DD	8r	.
.	4e 4g# 4b	.
=	=	=
4.CC	8r	.
.	4e 4a 4cc	.
4.CC	8r	.
.	4e 4a 4cc	.
=	=	=
4.DD	8r	.
!	!LO:TX:b:i:t=dim.	!
.	4e 4g#X 4b	.
4.DD	8r	.
.	4e 4g# 4b	.
=	=	=
4.CC	8r	.
.	4e 4a 4cc	.
4.CC	8r	.
.	4e 4a 4cc	.
=	=	=
*-	*-	*-
!!!system-decoration: {(s1,s2)}
